src/css/fonts/SVGs/iota_icons/pick_a_wallet.svg

<svg width="48" height="34" viewBox="0 0 48 34" fill="none" xmlns="http://www.w3.org/2000/svg">
<path fill-rule="evenodd" clip-rule="evenodd" d="M7.65269 6.43015C7.40015 3.6232 9.19277 0.957097 12.0082 0.202718C14.8235 -0.551661 17.709 0.860937 18.8938 3.4181L20.3554 3.02648C24.8099 1.83288 29.3887 4.47642 30.5823 8.93101L33.4288 19.5542C34.6224 24.0088 31.9788 28.5875 27.5243 29.7811L13.36 33.5764C8.90543 34.77 4.32667 32.1265 3.13307 27.6719L0.286601 17.0487C-0.907002 12.5941 1.73655 8.01538 6.19113 6.82177L7.65269 6.43015ZM17.2509 16.2824C16.7673 17.1132 15.699 17.3995 14.8648 16.9217C14.0306 16.444 13.7464 15.3832 14.23 14.5523C14.7135 13.7215 15.7818 13.4353 16.616 13.913C17.4502 14.3907 17.7345 15.4515 17.2509 16.2824ZM8.05374 20.7598L7.47993 20.4312C5.67801 19.3992 5.70281 16.8046 7.52425 15.7942C8.3467 15.338 9.34799 15.3425 10.163 15.8061L15.083 18.6048C15.1955 18.6688 15.237 18.7953 15.2061 18.9052C15.2053 18.9467 15.1944 18.9891 15.1717 19.0293L12.3911 23.9588C11.9305 24.7754 11.074 25.2939 10.1339 25.3254C8.05209 25.395 6.69651 23.1824 7.71132 21.371L8.05374 20.7598Z" fill="black"/>
<path fill-rule="evenodd" clip-rule="evenodd" d="M26.0042 31.6738C25.5043 31.6738 25.016 31.6238 24.5443 31.5284L28.3842 30.4995C29.398 30.2279 30.3244 29.7926 31.1424 29.2298H40.6681C43.3676 29.2298 45.556 27.0414 45.556 24.3419H41.2791C38.2421 24.3419 35.7801 21.8799 35.7801 18.8429C35.7801 15.8059 38.2421 13.3439 41.2791 13.3439H45.556C45.556 10.6444 43.3676 8.45598 40.6681 8.45598H31.745L31.6625 8.14782C31.1939 6.39909 30.2387 4.9107 28.9816 3.78933C29.7908 2.20714 31.437 1.12404 33.3361 1.12404C36.0357 1.12404 38.2241 3.31246 38.2241 6.012H40.6681C44.7174 6.012 48 9.29463 48 13.3439V24.3419C48 28.3912 44.7174 31.6738 40.6681 31.6738H26.0042ZM41.2791 15.7879H45.556V21.8979H41.2791C39.5918 21.8979 38.2241 20.5301 38.2241 18.8429C38.2241 17.1557 39.5918 15.7879 41.2791 15.7879Z" fill="black"/>
</svg>

<svg xmlns="http://www.w3.org/2000/svg" viewBox="0 0 48 34">
  <path fill-rule="evenodd" clip-rule="evenodd" d="M7.653 6.43a5.908 5.908 0 0 1 11.24-3.012l1.462-.392a8.35 8.35 0 0 1 10.227 5.905l2.847 10.623a8.35 8.35 0 0 1-5.905 10.227L13.36 33.576a8.35 8.35 0 0 1-10.227-5.904L.287 17.049A8.35 8.35 0 0 1 6.19 6.822l1.462-.392Zm9.598 9.852a1.755 1.755 0 0 1-2.386.64 1.726 1.726 0 0 1-.635-2.37 1.755 1.755 0 0 1 2.386-.639 1.726 1.726 0 0 1 .635 2.37ZM8.054 20.76l-.574-.329c-1.802-1.032-1.777-3.626.044-4.637a2.696 2.696 0 0 1 2.639.012l4.92 2.799c.112.064.154.19.123.3a.262.262 0 0 1-.034.124l-2.78 4.93a2.695 2.695 0 0 1-2.258 1.366c-2.082.07-3.437-2.143-2.423-3.954l.343-.611Z"/>
  <path fill-rule="evenodd" clip-rule="evenodd" d="M26.004 31.674c-.5 0-.988-.05-1.46-.146l3.84-1.028a8.935 8.935 0 0 0 2.758-1.27h9.526c2.7 0 4.888-2.189 4.888-4.888h-4.277a5.499 5.499 0 0 1 0-10.998h4.277c0-2.7-2.188-4.888-4.888-4.888h-8.923l-.082-.308a8.91 8.91 0 0 0-2.681-4.359 4.888 4.888 0 0 1 9.242 2.223h2.444A7.332 7.332 0 0 1 48 13.344v10.998a7.332 7.332 0 0 1-7.332 7.332H26.004ZM41.28 15.788h4.277v6.11H41.28a3.055 3.055 0 1 1 0-6.11Z"/>
</svg>
